places/scalable/folder-violet-yandex-disk.svg

<svg xmlns="http://www.w3.org/2000/svg" width="256" height="256" style="isolation:isolate"><path fill="#7839B7" d="M53.039 21C16.724 21 13 23.055 13 59.371v52.167h230V79.563c0-36.316-3.724-42.102-40.039-42.102h-89.336L97.198 21H53.039z"/><path fill="#8F76E4" d="M53.039 70.384C16.722 70.384 13 74.114 13 110.429v84.524C13 231.269 16.722 235 53.039 235h149.922c36.317 0 40.039-3.731 40.039-40.047V93.969c0-36.316-3.722-40.047-40.039-40.047H119.53l-16.438 16.462H53.039z"/><linearGradient id="a" x2="0" y1=".5" y2="-.5" gradientTransform="matrix(230 0 0 181.078 13 53.922)" gradientUnits="userSpaceOnUse"><stop offset="0%" stop-opacity=".07" stop-color="#fff"/><stop offset="67.282%" stop-opacity="0" stop-color="#fcefe8"/></linearGradient><path fill="url(#a)" d="M53.039 70.384C16.722 70.384 13 74.114 13 110.429v84.524C13 231.269 16.722 235 53.039 235h149.922c36.317 0 40.039-3.731 40.039-40.047V93.969c0-36.316-3.722-40.047-40.039-40.047H119.53l-16.438 16.462H53.039z"/><g opacity=".4"><radialGradient id="b" cx=".5" cy=".5" r=".272" fx=".5" fy=".136" gradientTransform="matrix(230 0 0 60.62 13 21)" gradientUnits="userSpaceOnUse"><stop offset="0%" stop-color="#fff"/><stop offset="100%" stop-opacity=".204" stop-color="#fff"/></radialGradient><path fill="url(#b)" d="M53.039 21C16.724 21 13 23.055 13 59.371v2.059c0-36.316 3.724-38.373 40.039-38.373h44.159l16.427 16.461h89.336c36.315 0 40.039 5.786 40.039 42.102v-2.057c0-36.316-3.724-42.102-40.039-42.102h-89.336L97.198 21H53.039z"/></g><g opacity=".4"><radialGradient id="c" cx=".5" cy=".5" r=".272" fx=".482" fy=".211" gradientTransform="matrix(230 0 0 58.565 13 53.922)" gradientUnits="userSpaceOnUse"><stop offset="0%" stop-color="#fff"/><stop offset="100%" stop-opacity=".204" stop-color="#fff"/></radialGradient><path fill="url(#c)" d="M119.53 53.922l-16.438 16.462H53.039C16.724 70.384 13 74.112 13 110.427v2.06c0-36.316 3.724-40.046 40.039-40.046h50.053l16.438-16.46h83.431c36.315 0 40.039 3.727 40.039 40.043v-2.057c0-36.316-3.724-40.045-40.039-40.045H119.53z"/></g><path fill="#FFF" d="M243 167.096l-65.715 65.845h25.676c36.315 0 40.039-3.727 40.039-40.043v-25.802z" opacity=".1"/><path d="M121.195 106.999c-21.175 0-21.645 14.135-27.765 23.65 7.5-3.535 15.86-6.555 24.88-8.885 8.205-2.115 16.475-3.515 24.505-4.15-5.095-4.14-8.65-10.615-21.62-10.615zm29.06 20.245c-9.335.18-19.46 1.62-29.445 4.2-32.895 8.495-56.346 26.981-52.371 41.281 2.29 8.17 13.335 15.57 29.786 16.55-.01-.06-.025-.115-.03-.175v-.02c-.02-.145-.07-.275-.09-.42-.96-8.72 4.03-15.49 9.77-20.265 5.735-4.775 13.095-8.23 21.425-10.085 4.045-.905 8.12-1.36 12.13-1.31h.01c6.01.075 11.56 1.195 16.446 3.965 4.03 2.285 7.715 6.255 9.285 11.16 15.015-9.175 22.775-21.536 20.41-30.166-2.625-9.47-16.94-15.115-37.326-14.715zM141.31 167c-3.155-.04-6.495.33-9.835 1.075-13.78 3.07-24.275 11.8-23.425 19.49.85 7.695 12.71 11.435 26.495 8.36 13.78-3.075 24.256-11.8 23.406-19.49-.615-5.595-7.171-9.315-16.641-9.435z" fill="#FFF" opacity=".62"/><path d="M13 192.898v2.057C13 231.271 16.724 235 53.039 235h149.922c36.315 0 40.039-3.729 40.039-40.045v-2.057c0 36.316-3.724 40.043-40.039 40.043H53.039c-36.315 0-40.039-3.727-40.039-40.043z" opacity=".2"/></svg>

<?xml version="1.0" standalone="no"?>
<!--Generator: Gravit.io-->
<svg xmlns="http://www.w3.org/2000/svg" 
    xmlns:xlink="http://www.w3.org/1999/xlink" width="256" height="256" style="isolation:isolate" viewBox="0 0 256 256">
    <switch>
        <g>
            <g id="folder">
                <path id="orange" fill="#7839B7" d=" M 53.039 21 C 16.724 21 13 23.055 13 59.371 L 13 111.538 L 243 111.538 L 243 79.563 C 243 43.247 239.276 37.461 202.961 37.461 L 113.625 37.461 L 97.198 21 L 53.039 21 Z "/>
                <path id="change-color-easy" fill="#8F76E4" d=" M 53.039 70.384 C 16.722 70.384 13 74.114 13 110.429 L 13 194.953 C 13 231.269 16.722 235 53.039 235 L 202.961 235 C 239.278 235 243 231.269 243 194.953 L 243 93.969 C 243 57.653 239.278 53.922 202.961 53.922 L 119.53 53.922 L 103.092 70.384 L 53.039 70.384 Z "/>
                <linearGradient id="_lgradient_1" x1="0" x2="2.83276944882399e-16" y1="0.5" y2="-0.5" gradientTransform="matrix(230,0,0,181.078,13,53.922)" gradientUnits="userSpaceOnUse">
                    <stop offset="0%" stop-opacity="0.07" style="stop-color:rgb(255,255,255)"/>
                    <stop offset="67.28219512106674%" stop-opacity="0" style="stop-color:rgb(252,239,232)"/>
                </linearGradient>
                <path id="gradient white" fill="url(#_lgradient_1)" d=" M 53.039 70.384 C 16.722 70.384 13 74.114 13 110.429 L 13 194.953 C 13 231.269 16.722 235 53.039 235 L 202.961 235 C 239.278 235 243 231.269 243 194.953 L 243 93.969 C 243 57.653 239.278 53.922 202.961 53.922 L 119.53 53.922 L 103.092 70.384 L 53.039 70.384 Z "/>
                <g opacity="0.4">
                    <radialGradient id="_rgradient_1" cx="0.5" cy="0.5" r="0.27154159375000003" fx="0.5000000213726793" fy="0.13577386516315215" gradientTransform="matrix(230,0,0,60.62,13,21)" gradientUnits="userSpaceOnUse">
                        <stop offset="0%" stop-opacity="1" style="stop-color:rgb(255,255,255)"/>
                        <stop offset="100%" stop-opacity="0.20392157" style="stop-color:rgb(255,255,255)"/>
                    </radialGradient>
                    <path id="white" fill="url(#_rgradient_1)" d=" M 53.039 21 C 16.724 21 13 23.055 13 59.371 L 13 61.43 C 13 25.114 16.724 23.057 53.039 23.057 L 97.198 23.057 L 113.625 39.518 L 202.961 39.518 C 239.276 39.518 243 45.304 243 81.62 L 243 79.563 C 243 43.247 239.276 37.461 202.961 37.461 L 113.625 37.461 L 97.198 21 L 53.039 21 Z "/>
                </g>
                <g opacity="0.4">
                    <radialGradient id="_rgradient_2" cx="0.5" cy="0.5" r="0.27154159375" fx="0.48214287810452355" fy="0.2108154047287485" gradientTransform="matrix(230,0,0,58.565,13,53.922)" gradientUnits="userSpaceOnUse">
                        <stop offset="0%" stop-opacity="1" style="stop-color:rgb(255,255,255)"/>
                        <stop offset="100%" stop-opacity="0.20392157" style="stop-color:rgb(255,255,255)"/>
                    </radialGradient>
                    <path id="white" fill="url(#_rgradient_2)" d=" M 119.53 53.922 L 103.092 70.384 L 53.039 70.384 C 16.724 70.384 13 74.112 13 110.427 L 13 112.487 C 13 76.171 16.724 72.441 53.039 72.441 L 103.092 72.441 L 119.53 55.981 L 202.961 55.981 C 239.276 55.981 243 59.708 243 96.024 L 243 93.967 C 243 57.651 239.276 53.922 202.961 53.922 L 119.53 53.922 Z "/>
                </g>
                <g opacity="0.1">
                    <path id="white" fill="rgb(255,255,255)" d=" M 243 167.096 L 177.285 232.941 L 202.961 232.941 C 239.276 232.941 243 229.214 243 192.898 L 243 167.096 Z "/>
                </g>

                <g opacity="0.62">
                    <path d=" M 121.195 106.999 C 100.02 106.999 99.55 121.134 93.43 130.649 C 100.93 127.114 109.29 124.094 118.31 121.764 C 126.515 119.649 134.785 118.249 142.815 117.614 C 137.72 113.474 134.165 106.999 121.195 106.999 Z  M 150.255 127.244 C 140.92 127.424 130.795 128.864 120.81 131.444 C 87.915 139.939 64.464 158.425 68.439 172.725 C 70.729 180.895 81.774 188.295 98.225 189.275 C 98.215 189.215 98.2 189.16 98.195 189.1 C 98.195 189.095 98.195 189.085 98.195 189.08 C 98.175 188.935 98.125 188.805 98.105 188.66 C 97.145 179.94 102.135 173.17 107.875 168.395 C 113.61 163.62 120.97 160.165 129.3 158.31 C 133.345 157.405 137.42 156.95 141.43 157 L 141.44 157 C 147.45 157.075 153 158.195 157.886 160.965 C 161.916 163.25 165.601 167.22 167.171 172.125 C 182.186 162.95 189.946 150.589 187.581 141.959 C 184.956 132.489 170.641 126.844 150.255 127.244 Z  M 141.31 167 C 138.155 166.96 134.815 167.33 131.475 168.075 C 117.695 171.145 107.2 179.875 108.05 187.565 C 108.9 195.26 120.76 199 134.545 195.925 C 148.325 192.85 158.801 184.125 157.951 176.435 C 157.336 170.84 150.78 167.12 141.31 167 Z " id="yandex-disk" fill="#FFFFFF"/>
                </g>

                <g opacity="0.2">
                    <path id="dark" fill="rgb(0,0,0)" d=" M 13 192.898 L 13 194.955 C 13 231.271 16.724 235 53.039 235 L 202.961 235 C 239.276 235 243 231.271 243 194.955 L 243 192.898 C 243 229.214 239.276 232.941 202.961 232.941 L 53.039 232.941 C 16.724 232.941 13 229.214 13 192.898 Z "/>
                </g>
            </g>
        </g>
    </switch>
</svg>
